www/assets/icons/sensors.svg

<svg width="24" height="24" viewBox="0 0 24 24" xmlns="http://www.w3.org/2000/svg" fill='currentColor'><path d="M7.76 16.2402C6.67 15.1602 6 13.6602 6 12.0002C6 10.3402 6.67 8.84018 7.76 7.76018L9.18 9.18018C8.45 9.90018 8 10.9002 8 12.0002C8 13.1002 8.45 14.1002 9.17 14.8302L7.76 16.2402ZM16.24 16.2402C17.33 15.1602 18 13.6602 18 12.0002C18 10.3402 17.33 8.84018 16.24 7.76018L14.82 9.18018C15.55 9.90018 16 10.9002 16 12.0002C16 13.1002 15.55 14.1002 14.83 14.8302L16.24 16.2402ZM12 10.0002C10.9 10.0002 10 10.9002 10 12.0002C10 13.1002 10.9 14.0002 12 14.0002C13.1 14.0002 14 13.1002 14 12.0002C14 10.9002 13.1 10.0002 12 10.0002ZM20 12.0002C20 14.2102 19.1 16.2102 17.65 17.6502L19.07 19.0702C20.88 17.2602 22 14.7602 22 12.0002C22 9.24018 20.88 6.74018 19.07 4.93018L17.65 6.35018C19.1 7.79018 20 9.79018 20 12.0002ZM6.35 6.35018L4.93 4.93018C3.12 6.74018 2 9.24018 2 12.0002C2 14.7602 3.12 17.2602 4.93 19.0702L6.35 17.6502C4.9 16.2102 4 14.2102 4 12.0002C4 9.79018 4.9 7.79018 6.35 6.35018Z"/></svg>

<svg xmlns="http://www.w3.org/2000/svg" width="24" height="24" viewBox="0 0 24 24" fill='currentColor'><path d="M7.76 16.24A5.94 5.94 0 0 1 6 12c0-1.66.67-3.16 1.76-4.24l1.42 1.42C8.45 9.9 8 10.9 8 12s.45 2.1 1.17 2.83zm8.48 0A5.94 5.94 0 0 0 18 12c0-1.66-.67-3.16-1.76-4.24l-1.42 1.42C15.55 9.9 16 10.9 16 12s-.45 2.1-1.17 2.83zM12 10c-1.1 0-2 .9-2 2s.9 2 2 2 2-.9 2-2-.9-2-2-2m8 2c0 2.21-.9 4.21-2.35 5.65l1.42 1.42A9.97 9.97 0 0 0 22 12c0-2.76-1.12-5.26-2.93-7.07l-1.42 1.42A7.94 7.94 0 0 1 20 12M6.35 6.35 4.93 4.93A9.97 9.97 0 0 0 2 12c0 2.76 1.12 5.26 2.93 7.07l1.42-1.42A7.94 7.94 0 0 1 4 12c0-2.21.9-4.21 2.35-5.65"/></svg>
